svgs/duotone/rectangle-barcode.svg

<svg xmlns="http://www.w3.org/2000/svg" viewBox="0 0 576 512"><!--! Font Awesome Pro 6.4.2 by @fontawesome - https://fontawesome.com License - https://fontawesome.com/license (Commercial License) Copyright 2023 Fonticons, Inc. --><path class="fa-primary" style="fill:var(--fa-primary-color,inherit);opacity:var(--fa-primary-opacity,1);" d="M96 152c0-13.3 10.7-24 24-24s24 10.7 24 24V360c0 13.3-10.7 24-24 24s-24-10.7-24-24V152zm80-8c0-8.8 7.2-16 16-16s16 7.2 16 16V368c0 8.8-7.2 16-16 16s-16-7.2-16-16V144zm88-16c13.3 0 24 10.7 24 24V360c0 13.3-10.7 24-24 24s-24-10.7-24-24V152c0-13.3 10.7-24 24-24zm88 24c0-13.3 10.7-24 24-24s24 10.7 24 24V360c0 13.3-10.7 24-24 24s-24-10.7-24-24V152zm112-24c8.8 0 16 7.2 16 16V368c0 8.8-7.2 16-16 16s-16-7.2-16-16V144c0-8.8 7.2-16 16-16z"/><path class="fa-secondary" style="fill:var(--fa-secondary-color,inherit);opacity:var(--fa-secondary-opacity,.4);" d="M64 32C28.7 32 0 60.7 0 96V416c0 35.3 28.7 64 64 64H512c35.3 0 64-28.7 64-64V96c0-35.3-28.7-64-64-64H64zm56 96c13.3 0 24 10.7 24 24V360c0 13.3-10.7 24-24 24s-24-10.7-24-24V152c0-13.3 10.7-24 24-24zm56 16c0-8.8 7.2-16 16-16s16 7.2 16 16V368c0 8.8-7.2 16-16 16s-16-7.2-16-16V144zm88-16c13.3 0 24 10.7 24 24V360c0 13.3-10.7 24-24 24s-24-10.7-24-24V152c0-13.3 10.7-24 24-24zm88 24c0-13.3 10.7-24 24-24s24 10.7 24 24V360c0 13.3-10.7 24-24 24s-24-10.7-24-24V152zm112-24c8.8 0 16 7.2 16 16V368c0 8.8-7.2 16-16 16s-16-7.2-16-16V144c0-8.8 7.2-16 16-16z"/></svg>

<svg xmlns="http://www.w3.org/2000/svg" viewBox="0 0 576 512"><!--! Font Awesome Pro 6.1.1 by @fontawesome - https://fontawesome.com License - https://fontawesome.com/license (Commercial License) Copyright 2022 Fonticons, Inc. --><defs><style>.fa-secondary{opacity:.4}</style></defs><path class="fa-primary" d="M96 152C96 138.7 106.7 128 120 128C133.3 128 144 138.7 144 152V360C144 373.3 133.3 384 120 384C106.7 384 96 373.3 96 360V152zM176 144C176 135.2 183.2 128 192 128C200.8 128 208 135.2 208 144V368C208 376.8 200.8 384 192 384C183.2 384 176 376.8 176 368V144zM288 152V360C288 373.3 277.3 384 264 384C250.7 384 240 373.3 240 360V152C240 138.7 250.7 128 264 128C277.3 128 288 138.7 288 152zM352 152C352 138.7 362.7 128 376 128C389.3 128 400 138.7 400 152V360C400 373.3 389.3 384 376 384C362.7 384 352 373.3 352 360V152zM480 144V368C480 376.8 472.8 384 464 384C455.2 384 448 376.8 448 368V144C448 135.2 455.2 128 464 128C472.8 128 480 135.2 480 144z"/><path class="fa-secondary" d="M512 32C547.3 32 576 60.65 576 96V416C576 451.3 547.3 480 512 480H64C28.65 480 0 451.3 0 416V96C0 60.65 28.65 32 64 32H512zM120 128C106.7 128 96 138.7 96 152V360C96 373.3 106.7 384 120 384C133.3 384 144 373.3 144 360V152C144 138.7 133.3 128 120 128zM176 368C176 376.8 183.2 384 192 384C200.8 384 208 376.8 208 368V144C208 135.2 200.8 128 192 128C183.2 128 176 135.2 176 144V368zM264 128C250.7 128 240 138.7 240 152V360C240 373.3 250.7 384 264 384C277.3 384 288 373.3 288 360V152C288 138.7 277.3 128 264 128zM352 360C352 373.3 362.7 384 376 384C389.3 384 400 373.3 400 360V152C400 138.7 389.3 128 376 128C362.7 128 352 138.7 352 152V360zM464 128C455.2 128 448 135.2 448 144V368C448 376.8 455.2 384 464 384C472.8 384 480 376.8 480 368V144C480 135.2 472.8 128 464 128z"/></svg>
